; HEADER_BLOCK_START
; generated by OrcaSlicer 2.3.2 on 2026-06-01 at 23:17:37
; total layer number: 185
; filament_density: 1.27
; filament_diameter: 1.75
; max_z_height: 22.34
; filament: 1
; HEADER_BLOCK_END

; THUMBNAIL_BLOCK_START

;
; THUMBNAIL_BLOCK_END

; THUMBNAIL_BLOCK_START

;
; THUMBNAIL_BLOCK_END

; external perimeters extrusion width = 0.42mm
; perimeters extrusion width = 0.45mm
; infill extrusion width = 0.45mm
; solid infill extrusion width = 0.42mm
; top infill extrusion width = 0.28mm
; first layer extrusion width = 0.50mm

; EXECUTABLE_BLOCK_START
M73 P0 R16
;TYPE:Custom
M104 S0 ; Stops PS/SS from sending temp waits separately
M140 S0
M117
PRINT_START BED=60 HOTEND=230
PURGE_LINE

;; Guide: https://ellis3dp.com/Print-Tuning-Guide/articles/passing_slicer_variables.html#slicer-start-g-code
G90
G21
M83 ; use relative distances for extrusion
; Filament gcode
SET_PRESSURE_ADVANCE ADVANCE=0.028; Override pressure advance value
M106 S0
;LAYER_CHANGE
;Z:0.26
;HEIGHT:0.26
; TIMELAPSE_TAKE_FRAME
G1 E-1.2 F2400
;_SET_FAN_SPEED_CHANGING_LAYER
SET_VELOCITY_LIMIT ACCEL=500 ACCEL_TO_DECEL=250
G1 X98.242 Y98.198 F18000
G1 Z.26
G1 Z.26
G1 E1.2 F2400
;TYPE:Skirt
;WIDTH:0.5
SET_PRESSURE_ADVANCE ADVANCE=0; Override pressure advance value
G1 F3000
G1 X98.714 Y97.704 E.03148
G1 X100.35 Y97.239 E.07839
G1 X122.65 Y97.239 E1.02793
G1 X124.164 Y97.633 E.07213
G1 X125.296 Y98.714 E.07213
G1 X125.761 Y100.35 E.07839
G1 X125.761 Y122.65 E1.02793
G1 X125.367 Y124.164 E.07213
G1 X124.286 Y125.296 E.07213
G1 X122.65 Y125.761 E.07839
G1 X100.35 Y125.761 E1.02793
G1 X98.836 Y125.367 E.07213
G1 X97.704 Y124.286 E.07213
G1 X97.239 Y122.65 E.07839
G1 X97.239 Y100.35 E1.02793
G1 X97.633 Y98.836 E.07213
G1 X98.215 Y98.227 E.03881
G1 X98.515 Y98.551 F18000
G1 F3000
G1 X99.138 Y97.975 E.03913
G1 X100.35 Y97.684 E.05745
G1 X122.65 Y97.684 E1.02793
G1 X124.042 Y98.076 E.06669
G1 X125.025 Y99.138 E.06669
G1 X125.316 Y100.35 E.05745
G1 X125.316 Y122.65 E1.02793
G1 X124.924 Y124.042 E.06669
G1 X123.862 Y125.025 E.06669
G1 X122.65 Y125.316 E.05745
G1 X100.35 Y125.316 E1.02793
G1 X98.958 Y124.924 E.06669
G1 X97.975 Y123.862 E.06669
G1 X97.684 Y122.65 E.05745
G1 X97.684 Y100.35 E1.02793
G1 X98.076 Y98.958 E.06669
G1 X98.486 Y98.579 E.02572
G1 X98.748 Y98.911 F18000
G1 F3000
G1 X99.554 Y98.275 E.04735
G1 X100.35 Y98.128 E.0373
G1 X122.65 Y98.128 E1.02793
G1 X123.909 Y98.519 E.06076
G1 X124.725 Y99.554 E.06076
G1 X124.872 Y100.35 E.0373
G1 X124.872 Y122.65 E1.02793
G1 X124.481 Y123.909 E.06076
G1 X123.446 Y124.725 E.06076
G1 X122.65 Y124.872 E.0373
G1 X100.35 Y124.872 E1.02793
G1 X99.091 Y124.481 E.06076
G1 X98.275 Y123.446 E.06076
G1 X98.128 Y122.65 E.0373
G1 X98.128 Y100.35 E1.02793
G1 X98.519 Y99.091 E.06076
G1 X98.716 Y98.936 E.01157
; printing object Cube id:7596569212780310388 copy 0
G1 E-1.2 F2400
G1 X121.404 Y121.404 F18000
G1 E1.2 F2400
;TYPE:Inner wall
;WIDTH:0.499999
G1 F3000
G1 X101.596 Y121.404 E.9313
G1 X101.596 Y101.596 E.9313
G1 X121.404 Y101.596 E.9313
M73 P1 R16
G1 X121.404 Y121.364 E.92941
G1 X121.848 Y121.848 F18000
G1 F3000
G1 X101.152 Y121.848 E.97307
G1 X101.152 Y101.152 E.97307
G1 X121.848 Y101.152 E.97307
G1 X121.848 Y121.808 E.97119
G1 X122.12 Y121.974 F18000
;TYPE:Outer wall
G1 F3000
G1 X122.32 Y122.32
G1 X100.68 Y122.32 E1.01746
G1 X100.68 Y100.68 E1.01746
G1 X122.32 Y100.68 E1.01746
G1 X122.32 Y122.28 E1.01558
G1 X122.243 Y122.299
G1 E-1.2 F2400
G1 X121.27 Y102.633 F18000
G1 E1.2 F2400
;TYPE:Bottom surface
;WIDTH:0.502535
G1 F6300
G1 X120.367 Y101.73 E.05246
G1 X119.735 Y101.73 F18000
G1 F6300
G1 X121.27 Y103.265 E.09571
G1 X121.27 Y103.896 F18000
G1 F6300
G1 X119.104 Y101.73 E.13932
G1 X118.472 Y101.73 F18000
G1 F6300
G1 X121.27 Y104.528 E.18283
G1 X121.27 Y105.16 F18000
G1 F6300
G1 X117.84 Y101.73 E.22671
G1 X117.208 Y101.73 F18000
G1 F6300
G1 X121.27 Y105.792 E.27132
G1 X121.27 Y106.424 F18000
G1 F6300
G1 X116.576 Y101.73 E.31647
G1 X115.945 Y101.73 F18000
G1 F6300
G1 X121.27 Y107.055 E.36214
G1 X121.27 Y107.687 F18000
G1 F6300
G1 X115.313 Y101.73 E.40839
G1 X114.681 Y101.73 F18000
G1 F6300
G1 X121.27 Y108.319 E.45536
G1 X121.27 Y108.951 F18000
G1 F6300
G1 X114.049 Y101.73 E.50221
G1 X113.417 Y101.73 F18000
G1 F6300
G1 X121.27 Y109.583 E.54615
G1 X121.27 Y110.214 F18000
G1 F6300
G1 X112.786 Y101.73 E.59009
G1 X112.154 Y101.73 F18000
G1 F6300
G1 X121.27 Y110.846 E.63403
G1 X121.27 Y111.478 F18000
G1 F6300
G1 X111.522 Y101.73 E.67797
G1 X110.89 Y101.73 F18000
G1 F6300
G1 X121.27 Y112.11 E.72191
G1 X121.27 Y112.741 F18000
G1 F6300
G1 X110.259 Y101.73 E.76584
G1 X109.627 Y101.73 F18000
M73 P2 R16
G1 F6300
G1 X121.27 Y113.373 E.80978
G1 X121.27 Y114.005 F18000
G1 F6300
G1 X108.995 Y101.73 E.85372
G1 X108.363 Y101.73 F18000
G1 F6300
G1 X121.27 Y114.637 E.89766
G1 X121.27 Y115.269 F18000
G1 F6300
G1 X107.731 Y101.73 E.9416
G1 X107.1 Y101.73 F18000
G1 F6300
G1 X121.27 Y115.9 E.98554
G1 X121.27 Y116.532 F18000
G1 F6300
G1 X106.468 Y101.73 E1.02948
G1 X105.836 Y101.73 F18000
G1 F6300
G1 X121.27 Y117.164 E1.07342
G1 X121.27 Y117.796 F18000
G1 F6300
G1 X105.204 Y101.73 E1.11735
G1 X104.573 Y101.73 F18000
G1 F6300
G1 X121.27 Y118.427 E1.16129
G1 X121.27 Y119.059 F18000
G1 F6300
G1 X103.941 Y101.73 E1.20523
G1 X103.309 Y101.73 F18000
G1 F6300
G1 X121.27 Y119.691 E1.24917
G1 X121.27 Y120.323 F18000
G1 F6300
G1 X102.677 Y101.73 E1.29311
G1 X102.045 Y101.73 F18000
G1 F6300
G1 X121.27 Y120.955 E1.33705
G1 X120.954 Y121.27 F18000
G1 F6300
G1 X101.73 Y102.046 E1.33704
G1 X101.73 Y102.677 F18000
G1 F6300
G1 X120.323 Y121.27 E1.2931
G1 X119.691 Y121.27 F18000
G1 F6300
G1 X101.73 Y103.309 E1.24916
G1 X101.73 Y103.941 F18000
G1 F6300
G1 X119.059 Y121.27 E1.20522
G1 X118.427 Y121.27 F18000
G1 F6300
G1 X101.73 Y104.573 E1.16129
G1 X101.73 Y105.204 F18000
G1 F6300
G1 X117.796 Y121.27 E1.11735
G1 X117.164 Y121.27 F18000
G1 F6300
G1 X101.73 Y105.836 E1.07341
G1 X101.73 Y106.468 F18000
G1 F6300
G1 X116.532 Y121.27 E1.02947
G1 X115.9 Y121.27 F18000
G1 F6300
G1 X101.73 Y107.1 E.98553
G1 X101.73 Y107.732 F18000
G1 F6300
M73 P3 R16
G1 X115.268 Y121.27 E.94159
G1 X114.637 Y121.27 F18000
G1 F6300
G1 X101.73 Y108.363 E.89765
G1 X101.73 Y108.995 F18000
G1 F6300
G1 X114.005 Y121.27 E.85371
G1 X113.373 Y121.27 F18000
G1 F6300
G1 X101.73 Y109.627 E.80978
G1 X101.73 Y110.259 F18000
G1 F6300
G1 X112.741 Y121.27 E.76584
G1 X112.11 Y121.27 F18000
G1 F6300
G1 X101.73 Y110.89 E.7219
G1 X101.73 Y111.522 F18000
G1 F6300
G1 X111.478 Y121.27 E.67796
G1 X110.846 Y121.27 F18000
G1 F6300
G1 X101.73 Y112.154 E.63402
G1 X101.73 Y112.786 F18000
G1 F6300
G1 X110.214 Y121.27 E.59008
G1 X109.582 Y121.27 F18000
G1 F6300
G1 X101.73 Y113.418 E.54614
G1 X101.73 Y114.049 F18000
G1 F6300
G1 X108.951 Y121.27 E.5022
G1 X108.319 Y121.27 F18000
G1 F6300
G1 X101.73 Y114.681 E.45535
G1 X101.73 Y115.313 F18000
G1 F6300
G1 X107.687 Y121.27 E.40838
G1 X107.055 Y121.27 F18000
G1 F6300
G1 X101.73 Y115.945 E.36213
G1 X101.73 Y116.577 F18000
G1 F6300
G1 X106.423 Y121.27 E.31646
G1 X105.792 Y121.27 F18000
G1 F6300
G1 X101.73 Y117.208 E.27132
G1 X101.73 Y117.84 F18000
G1 F6300
G1 X105.16 Y121.27 E.2267
G1 X104.528 Y121.27 F18000
G1 F6300
G1 X101.73 Y118.472 E.18282
G1 X101.73 Y119.104 F18000
G1 F6300
G1 X103.896 Y121.27 E.13931
G1 X103.265 Y121.27 F18000
G1 F6300
G1 X101.73 Y119.735 E.0957
G1 X101.73 Y120.367 F18000
G1 F6300
G1 X102.633 Y121.27 E.05245
; stop printing object Cube id:7596569212780310388 copy 0
M106 S255
;LAYER_CHANGE
;Z:0.38
;HEIGHT:0.12
; TIMELAPSE_TAKE_FRAME
G1 E-1.2 F2400
;_SET_FAN_SPEED_CHANGING_LAYER
SET_VELOCITY_LIMIT ACCEL=6000 ACCEL_TO_DECEL=3000
M140 S60 ; set bed temperature
; printing object Cube id:7596569212780310388 copy 0
SET_VELOCITY_LIMIT ACCEL=10000 ACCEL_TO_DECEL=5000
G1 X121.169 Y121.169 Z.38 F18000
G1 E1.2 F2400
SET_VELOCITY_LIMIT ACCEL=5000 ACCEL_TO_DECEL=2500
;TYPE:Inner wall
;WIDTH:0.449999
G1 F9000
G1 X101.831 Y121.169 E.39295
G1 X101.831 Y101.831 E.39295
G1 X121.169 Y101.831 E.39295
G1 X121.169 Y121.129 E.39213
SET_VELOCITY_LIMIT ACCEL=10000 ACCEL_TO_DECEL=5000
G1 X121.594 Y121.594 F18000
SET_VELOCITY_LIMIT ACCEL=5000 ACCEL_TO_DECEL=2500
G1 F9000
G1 X101.406 Y121.594 E.41019
G1 X101.406 Y101.406 E.41019
G1 X121.594 Y101.406 E.41019
G1 X121.594 Y121.554 E.40937
SET_VELOCITY_LIMIT ACCEL=10000 ACCEL_TO_DECEL=5000
G1 X122.018 Y122.018 F18000
SET_VELOCITY_LIMIT ACCEL=5000 ACCEL_TO_DECEL=2500
G1 F9000
G1 X100.982 Y122.018 E.42743
G1 X100.982 Y100.982 E.42743
G1 X122.018 Y100.982 E.42743
G1 X122.018 Y121.978 E.42662
G1 X122.24 Y122.094 F18000
;TYPE:Outer wall
;WIDTH:0.419999
G1 F3600
G1 X122.44 Y122.44
G1 X100.56 Y122.44 E.41314
G1 X100.56 Y100.56 E.41314
G1 X122.44 Y100.56 E.41314
G1 X122.44 Y122.4 E.41239
G1 X122.363 Y122.419
SET_VELOCITY_LIMIT ACCEL=10000 ACCEL_TO_DECEL=5000
G1 E-1.2 F2400
G1 X111.273 Y111.273 F18000
G1 E1.2 F2400
SET_VELOCITY_LIMIT ACCEL=5000 ACCEL_TO_DECEL=2500
;TYPE:Internal solid infill
;WIDTH:0.478978
G1 F10200
G1 X111.273 Y111.727 E.01004
G1 X111.727 Y111.727 E.01004
G1 X111.727 Y111.273 E.01004
G1 X111.313 Y111.273 E.00915
SET_VELOCITY_LIMIT ACCEL=10000 ACCEL_TO_DECEL=5000
G1 X110.85 Y110.85 F18000
SET_VELOCITY_LIMIT ACCEL=5000 ACCEL_TO_DECEL=2500
;WIDTH:0.419999
G1 F10200
G1 X110.85 Y112.15 E.02505
G1 X112.15 Y112.15 E.02505
G1 X112.15 Y110.85 E.02505
G1 X110.89 Y110.85 E.02428
SET_VELOCITY_LIMIT ACCEL=10000 ACCEL_TO_DECEL=5000
G1 X110.455 Y110.455 F18000
SET_VELOCITY_LIMIT ACCEL=5000 ACCEL_TO_DECEL=2500
G1 F10200
G1 X110.455 Y112.545 E.04024
G1 X112.545 Y112.545 E.04024
G1 X112.545 Y110.455 E.04024
G1 X110.495 Y110.455 E.03947
SET_VELOCITY_LIMIT ACCEL=10000 ACCEL_TO_DECEL=5000
G1 X110.061 Y110.061 F18000
SET_VELOCITY_LIMIT ACCEL=5000 ACCEL_TO_DECEL=2500
G1 F10200
M73 P4 R16
G1 X110.061 Y112.939 E.05542
G1 X112.939 Y112.939 E.05542
G1 X112.939 Y110.061 E.05542
G1 X110.101 Y110.061 E.05465
SET_VELOCITY_LIMIT ACCEL=10000 ACCEL_TO_DECEL=5000
G1 X109.667 Y109.667 F18000
SET_VELOCITY_LIMIT ACCEL=5000 ACCEL_TO_DECEL=2500
G1 F10200
G1 X109.667 Y113.333 E.07061
G1 X113.333 Y113.333 E.07061
G1 X113.333 Y109.667 E.07061
G1 X109.707 Y109.667 E.06984
SET_VELOCITY_LIMIT ACCEL=10000 ACCEL_TO_DECEL=5000
G1 X109.273 Y109.273 F18000
SET_VELOCITY_LIMIT ACCEL=5000 ACCEL_TO_DECEL=2500
G1 F10200
G1 X109.273 Y113.727 E.0858
G1 X113.727 Y113.727 E.0858
G1 X113.727 Y109.273 E.0858
G1 X109.313 Y109.273 E.08503
SET_VELOCITY_LIMIT ACCEL=10000 ACCEL_TO_DECEL=5000
G1 X108.878 Y108.878 F18000
SET_VELOCITY_LIMIT ACCEL=5000 ACCEL_TO_DECEL=2500
G1 F10200
G1 X108.878 Y114.122 E.10098
G1 X114.122 Y114.122 E.10098
G1 X114.122 Y108.878 E.10098
G1 X108.918 Y108.878 E.10021
SET_VELOCITY_LIMIT ACCEL=10000 ACCEL_TO_DECEL=5000
G1 X108.484 Y108.484 F18000
SET_VELOCITY_LIMIT ACCEL=5000 ACCEL_TO_DECEL=2500
G1 F10200
G1 X108.484 Y114.516 E.11617
G1 X114.516 Y114.516 E.11617
G1 X114.516 Y108.484 E.11617
G1 X108.524 Y108.484 E.1154
SET_VELOCITY_LIMIT ACCEL=10000 ACCEL_TO_DECEL=5000
G1 X108.09 Y108.09 F18000
SET_VELOCITY_LIMIT ACCEL=5000 ACCEL_TO_DECEL=2500
G1 F10200
G1 X108.09 Y114.91 E.13136
G1 X114.91 Y114.91 E.13136
G1 X114.91 Y108.09 E.13136
G1 X108.13 Y108.09 E.13059
SET_VELOCITY_LIMIT ACCEL=10000 ACCEL_TO_DECEL=5000
G1 X107.696 Y107.696 F18000
SET_VELOCITY_LIMIT ACCEL=5000 ACCEL_TO_DECEL=2500
G1 F10200
G1 X107.696 Y115.304 E.14654
G1 X115.304 Y115.304 E.14654
G1 X115.304 Y107.696 E.14654
G1 X107.736 Y107.696 E.14577
SET_VELOCITY_LIMIT ACCEL=10000 ACCEL_TO_DECEL=5000
G1 X107.301 Y107.301 F18000
SET_VELOCITY_LIMIT ACCEL=5000 ACCEL_TO_DECEL=2500
G1 F10200
G1 X107.301 Y115.699 E.16173
G1 X115.699 Y115.699 E.16173
G1 X115.699 Y107.301 E.16173
G1 X107.341 Y107.301 E.16096
SET_VELOCITY_LIMIT ACCEL=10000 ACCEL_TO_DECEL=5000
G1 X106.907 Y106.907 F18000
SET_VELOCITY_LIMIT ACCEL=5000 ACCEL_TO_DECEL=2500
G1 F10200
G1 X106.907 Y116.093 E.17691
G1 X116.093 Y116.093 E.17691
G1 X116.093 Y106.907 E.17691
G1 X106.947 Y106.907 E.17614
SET_VELOCITY_LIMIT ACCEL=10000 ACCEL_TO_DECEL=5000
G1 X106.513 Y106.513 F18000
SET_VELOCITY_LIMIT ACCEL=5000 ACCEL_TO_DECEL=2500
G1 F10200
G1 X106.513 Y116.487 E.1921
G1 X116.487 Y116.487 E.1921
G1 X116.487 Y106.513 E.1921
G1 X106.553 Y106.513 E.19133
SET_VELOCITY_LIMIT ACCEL=10000 ACCEL_TO_DECEL=5000
G1 X106.119 Y106.119 F18000
SET_VELOCITY_LIMIT ACCEL=5000 ACCEL_TO_DECEL=2500
G1 F10200
G1 X106.119 Y116.881 E.20729
G1 X116.881 Y116.881 E.20729
G1 X116.881 Y106.119 E.20729
G1 X106.159 Y106.119 E.20652
SET_VELOCITY_LIMIT ACCEL=10000 ACCEL_TO_DECEL=5000
G1 X105.724 Y105.724 F18000
SET_VELOCITY_LIMIT ACCEL=5000 ACCEL_TO_DECEL=2500
G1 F10200
G1 X105.724 Y117.276 E.22247
G1 X117.276 Y117.276 E.22247
G1 X117.276 Y105.724 E.22247
G1 X105.764 Y105.724 E.2217
SET_VELOCITY_LIMIT ACCEL=10000 ACCEL_TO_DECEL=5000
G1 X105.33 Y105.33 F18000
SET_VELOCITY_LIMIT ACCEL=5000 ACCEL_TO_DECEL=2500
G1 F10200
G1 X105.33 Y117.67 E.23766
G1 X117.67 Y117.67 E.23766
G1 X117.67 Y105.33 E.23766
G1 X105.37 Y105.33 E.23689
SET_VELOCITY_LIMIT ACCEL=10000 ACCEL_TO_DECEL=5000
G1 X104.936 Y104.936 F18000
SET_VELOCITY_LIMIT ACCEL=5000 ACCEL_TO_DECEL=2500
G1 F10200
G1 X104.936 Y118.064 E.25285
G1 X118.064 Y118.064 E.25285
G1 X118.064 Y104.936 E.25285
G1 X104.976 Y104.936 E.25208
SET_VELOCITY_LIMIT ACCEL=10000 ACCEL_TO_DECEL=5000
G1 X104.542 Y104.542 F18000
SET_VELOCITY_LIMIT ACCEL=5000 ACCEL_TO_DECEL=2500
G1 F10200
G1 X104.542 Y118.458 E.26803
G1 X118.458 Y118.458 E.26803
G1 X118.458 Y104.542 E.26803
G1 X104.582 Y104.542 E.26726
SET_VELOCITY_LIMIT ACCEL=10000 ACCEL_TO_DECEL=5000
G1 X104.147 Y104.147 F18000
SET_VELOCITY_LIMIT ACCEL=5000 ACCEL_TO_DECEL=2500
G1 F10200
G1 X104.147 Y118.853 E.28322
G1 X118.853 Y118.853 E.28322
G1 X118.853 Y104.147 E.28322
G1 X104.187 Y104.147 E.28245
SET_VELOCITY_LIMIT ACCEL=10000 ACCEL_TO_DECEL=5000
G1 X103.753 Y103.753 F18000
SET_VELOCITY_LIMIT ACCEL=5000 ACCEL_TO_DECEL=2500
G1 F10200
G1 X103.753 Y119.247 E.29841
G1 X119.247 Y119.247 E.29841
G1 X119.247 Y103.753 E.29841
G1 X103.793 Y103.753 E.29764
SET_VELOCITY_LIMIT ACCEL=10000 ACCEL_TO_DECEL=5000
G1 X103.359 Y103.359 F18000
SET_VELOCITY_LIMIT ACCEL=5000 ACCEL_TO_DECEL=2500
G1 F10200
G1 X103.359 Y119.641 E.31359
G1 X119.641 Y119.641 E.31359
G1 X119.641 Y103.359 E.31359
G1 X103.399 Y103.359 E.31282
SET_VELOCITY_LIMIT ACCEL=10000 ACCEL_TO_DECEL=5000
G1 X102.965 Y102.965 F18000
SET_VELOCITY_LIMIT ACCEL=5000 ACCEL_TO_DECEL=2500
G1 F10200
G1 X102.965 Y120.035 E.32878
G1 X120.035 Y120.035 E.32878
G1 X120.035 Y102.965 E.32878
G1 X103.005 Y102.965 E.32801
SET_VELOCITY_LIMIT ACCEL=10000 ACCEL_TO_DECEL=5000
G1 X102.57 Y102.57 F18000
SET_VELOCITY_LIMIT ACCEL=5000 ACCEL_TO_DECEL=2500
G1 F10200
G1 X102.57 Y120.43 E.34396
G1 X120.43 Y120.43 E.34396
G1 X120.43 Y102.57 E.34396
G1 X102.61 Y102.57 E.34319
SET_VELOCITY_LIMIT ACCEL=10000 ACCEL_TO_DECEL=5000
G1 X102.176 Y102.176 F18000
SET_VELOCITY_LIMIT ACCEL=5000 ACCEL_TO_DECEL=2500
G1 F10200
G1 X102.176 Y120.824 E.35915
G1 X120.824 Y120.824 E.35915
G1 X120.824 Y102.176 E.35915
G1 X102.216 Y102.176 E.35838
; stop printing object Cube id:7596569212780310388 copy 0
;LAYER_CHANGE
;Z:0.5
;HEIGHT:0.12
; TIMELAPSE_TAKE_FRAME
G1 E-1.2 F2400
;_SET_FAN_SPEED_CHANGING_LAYER
; printing object Cube id:7596569212780310388 copy 0
SET_VELOCITY_LIMIT ACCEL=10000 ACCEL_TO_DECEL=5000
G1 X121.594 Y121.594 Z.5 F18000
G1 E1.2 F2400
SET_VELOCITY_LIMIT ACCEL=5000 ACCEL_TO_DECEL=2500
;TYPE:Inner wall
;WIDTH:0.449999
G1 F9000
G1 X101.406 Y121.594 E.41019
G1 X101.406 Y101.406 E.41019
G1 X121.594 Y101.406 E.41019
G1 X121.594 Y121.554 E.40937
SET_VELOCITY_LIMIT ACCEL=10000 ACCEL_TO_DECEL=5000
G1 X122.018 Y122.018 F18000
SET_VELOCITY_LIMIT ACCEL=5000 ACCEL_TO_DECEL=2500
G1 F9000
G1 X100.982 Y122.018 E.42743
G1 X100.982 Y100.982 E.42743
G1 X122.018 Y100.982 E.42743
G1 X122.018 Y121.978 E.42662
G1 X122.24 Y122.094 F18000
;TYPE:Outer wall
;WIDTH:0.419999
G1 F3600
G1 X122.44 Y122.44
G1 X100.56 Y122.44 E.41314
G1 X100.56 Y100.56 E.41314
G1 X122.44 Y100.56 E.41314
M73 P5 R16
G1 X122.44 Y122.4 E.41239
G1 X122.363 Y122.419
SET_VELOCITY_LIMIT ACCEL=10000 ACCEL_TO_DECEL=5000
G1 E-1.2 F2400
G1 X111.258 Y111.258 F18000
G1 E1.2 F2400
SET_VELOCITY_LIMIT ACCEL=5000 ACCEL_TO_DECEL=2500
