; HEADER_BLOCK_START
; generated by OrcaSlicer 2.3.2 on 2026-06-01 at 23:15:27
; total layer number: 111
; filament_density: 1.27
; filament_diameter: 1.75
; max_z_height: 22.20
; filament: 1
; HEADER_BLOCK_END

; THUMBNAIL_BLOCK_START

;
; THUMBNAIL_BLOCK_END

; THUMBNAIL_BLOCK_START

;
; THUMBNAIL_BLOCK_END

; external perimeters extrusion width = 0.42mm
; perimeters extrusion width = 0.45mm
; infill extrusion width = 0.45mm
; solid infill extrusion width = 0.42mm
; top infill extrusion width = 0.28mm
; first layer extrusion width = 0.50mm

; EXECUTABLE_BLOCK_START
M73 P0 R11
;TYPE:Custom
M104 S0 ; Stops PS/SS from sending temp waits separately
M140 S0
M117
PRINT_START BED=60 HOTEND=230
PURGE_LINE

;; Guide: https://ellis3dp.com/Print-Tuning-Guide/articles/passing_slicer_variables.html#slicer-start-g-code
G90
G21
M83 ; use relative distances for extrusion
; Filament gcode
SET_PRESSURE_ADVANCE ADVANCE=0.028; Override pressure advance value
M106 S0
;LAYER_CHANGE
;Z:0.2
;HEIGHT:0.2
; TIMELAPSE_TAKE_FRAME
G1 E-1.2 F2400
;_SET_FAN_SPEED_CHANGING_LAYER
SET_VELOCITY_LIMIT ACCEL=500 ACCEL_TO_DECEL=250
G1 X98.223 Y98.171 F18000
G1 Z.2
G1 Z.2
G1 E1.2 F2400
;TYPE:Skirt
;WIDTH:0.5
SET_PRESSURE_ADVANCE ADVANCE=0; Override pressure advance value
G1 F3000
G1 X98.683 Y97.686 E.02439
G1 X100.35 Y97.207 E.06327
G1 X122.65 Y97.207 E.81364
G1 X124.173 Y97.601 E.05739
G1 X125.314 Y98.683 E.05739
G1 X125.793 Y100.35 E.06327
G1 X125.793 Y122.65 E.81364
G1 X125.399 Y124.173 E.05739
G1 X124.317 Y125.314 E.05739
G1 X122.65 Y125.793 E.06327
G1 X100.35 Y125.793 E.81364
G1 X98.827 Y125.399 E.05739
G1 X97.686 Y124.317 E.05739
G1 X97.207 Y122.65 E.06327
G1 X97.207 Y100.35 E.81364
G1 X97.601 Y98.827 E.05739
G1 X98.196 Y98.2 E.03154
G1 X98.507 Y98.534 F18000
G1 F3000
G1 X99.12 Y97.963 E.03057
G1 X100.35 Y97.664 E.04618
G1 X122.65 Y97.664 E.81364
G1 X124.048 Y98.057 E.05298
G1 X125.037 Y99.12 E.05298
G1 X125.336 Y100.35 E.04618
G1 X125.336 Y122.65 E.81364
G1 X124.943 Y124.048 E.05298
G1 X123.88 Y125.037 E.05298
G1 X122.65 Y125.336 E.04618
G1 X100.35 Y125.336 E.81364
G1 X98.952 Y124.943 E.05298
G1 X97.963 Y123.88 E.05298
G1 X97.664 Y122.65 E.04618
G1 X97.664 Y100.35 E.81364
G1 X98.057 Y98.952 E.05298
M73 P0 R10
G1 X98.477 Y98.561 E.02095
G1 X98.748 Y98.903 F18000
G1 F3000
G1 X99.548 Y98.271 E.03723
G1 X100.35 Y98.121 E.02975
G1 X122.65 Y98.121 E.81364
G1 X123.911 Y98.512 E.04817
M73 P1 R10
G1 X124.729 Y99.548 E.04817
G1 X124.879 Y100.35 E.02975
G1 X124.879 Y122.65 E.81364
G1 X124.488 Y123.911 E.04817
G1 X123.452 Y124.729 E.04817
G1 X122.65 Y124.879 E.02975
G1 X100.35 Y124.879 E.81364
G1 X99.089 Y124.488 E.04817
G1 X98.271 Y123.452 E.04817
G1 X98.121 Y122.65 E.02975
G1 X98.121 Y100.35 E.81364
G1 X98.512 Y99.089 E.04817
G1 X98.716 Y98.928 E.00948
; printing object Cube id:7596569212780310388 copy 0
G1 E-1.2 F2400
G1 X121.384 Y121.384 F18000
G1 E1.2 F2400
;TYPE:Inner wall
;WIDTH:0.499999
G1 F3000
G1 X101.616 Y121.384 E.73571
G1 X101.616 Y101.616 E.73571
G1 X121.384 Y101.616 E.73571
G1 X121.384 Y121.344 E.73422
G1 X121.841 Y121.841 F18000
G1 F3000
G1 X101.159 Y121.841 E.76973
G1 X101.159 Y101.159 E.76973
G1 X121.841 Y101.159 E.76973
G1 X121.841 Y121.801 E.76824
G1 X122.12 Y121.974 F18000
M73 P2 R10
;TYPE:Outer wall
G1 F3000
G1 X122.32 Y122.32
G1 X100.68 Y122.32 E.80535
G1 X100.68 Y100.68 E.80535
G1 X122.32 Y100.68 E.80535
G1 X122.32 Y122.28 E.80386
G1 X122.243 Y122.299
G1 E-1.2 F2400
G1 X121.247 Y102.684 F18000
G1 E1.2 F2400
;TYPE:Bottom surface
;WIDTH:0.503487
G1 F6300
G1 X120.316 Y101.753 E.04312
G1 X119.665 Y101.753 F18000
G1 F6300
G1 X121.247 Y103.335 E.0785
G1 X121.247 Y103.987 F18000
G1 F6300
G1 X119.013 Y101.753 E.11414
G1 X118.362 Y101.753 F18000
G1 F6300
G1 X121.247 Y104.638 E.14975
G1 X121.247 Y105.289 F18000
G1 F6300
G1 X117.711 Y101.753 E.18571
G1 X117.059 Y101.753 F18000
G1 F6300
G1 X121.247 Y105.941 E.22227
G1 X121.247 Y106.592 F18000
G1 F6300
G1 X116.408 Y101.753 E.25927
G1 X115.757 Y101.753 F18000
G1 F6300
G1 X121.247 Y107.243 E.29672
G1 X121.247 Y107.895 F18000
G1 F6300
G1 X115.105 Y101.753 E.33468
G1 X114.454 Y101.753 F18000
G1 F6300
G1 X121.247 Y108.546 E.3733
G1 X121.247 Y109.198 F18000
G1 F6300
G1 X113.802 Y101.753 E.41061
G1 X113.151 Y101.753 F18000
G1 F6300
G1 X121.247 Y109.849 E.44653
G1 X121.247 Y110.5 F18000
G1 F6300
G1 X112.5 Y101.753 E.48246
G1 X111.848 Y101.753 F18000
G1 F6300
G1 X121.247 Y111.152 E.51838
G1 X121.247 Y111.803 F18000
G1 F6300
G1 X111.197 Y101.753 E.5543
G1 X110.546 Y101.753 F18000
G1 F6300
G1 X121.247 Y112.454 E.59023
G1 X121.247 Y113.106 F18000
M73 P3 R10
G1 F6300
G1 X109.894 Y101.753 E.62615
G1 X109.243 Y101.753 F18000
G1 F6300
G1 X121.247 Y113.757 E.66208
G1 X121.247 Y114.408 F18000
G1 F6300
G1 X108.592 Y101.753 E.698
G1 X107.94 Y101.753 F18000
G1 F6300
G1 X121.247 Y115.06 E.73392
G1 X121.247 Y115.711 F18000
G1 F6300
G1 X107.289 Y101.753 E.76985
G1 X106.638 Y101.753 F18000
G1 F6300
G1 X121.247 Y116.362 E.80577
G1 X121.247 Y117.014 F18000
G1 F6300
G1 X105.986 Y101.753 E.8417
G1 X105.335 Y101.753 F18000
G1 F6300
G1 X121.247 Y117.665 E.87762
G1 X121.247 Y118.316 F18000
G1 F6300
G1 X104.684 Y101.753 E.91354
G1 X104.032 Y101.753 F18000
G1 F6300
G1 X121.247 Y118.968 E.94947
G1 X121.247 Y119.619 F18000
G1 F6300
G1 X103.381 Y101.753 E.98539
G1 X102.73 Y101.753 F18000
G1 F6300
G1 X121.247 Y120.27 E1.02132
G1 X121.247 Y120.922 F18000
G1 F6300
G1 X102.078 Y101.753 E1.05724
G1 X101.753 Y102.078 F18000
G1 F6300
G1 X120.922 Y121.247 E1.05723
G1 X120.27 Y121.247 F18000
G1 F6300
G1 X101.753 Y102.73 E1.02131
G1 X101.753 Y103.381 F18000
G1 F6300
M73 P4 R10
G1 X119.619 Y121.247 E.98539
G1 X118.968 Y121.247 F18000
G1 F6300
G1 X101.753 Y104.032 E.94946
G1 X101.753 Y104.684 F18000
G1 F6300
G1 X118.316 Y121.247 E.91354
G1 X117.665 Y121.247 F18000
G1 F6300
G1 X101.753 Y105.335 E.87761
G1 X101.753 Y105.987 F18000
G1 F6300
G1 X117.014 Y121.247 E.84169
G1 X116.362 Y121.247 F18000
G1 F6300
G1 X101.753 Y106.638 E.80577
G1 X101.753 Y107.289 F18000
G1 F6300
G1 X115.711 Y121.247 E.76984
G1 X115.059 Y121.247 F18000
G1 F6300
G1 X101.753 Y107.941 E.73392
G1 X101.753 Y108.592 F18000
G1 F6300
G1 X114.408 Y121.247 E.69799
G1 X113.757 Y121.247 F18000
G1 F6300
G1 X101.753 Y109.243 E.66207
G1 X101.753 Y109.895 F18000
G1 F6300
G1 X113.105 Y121.247 E.62615
G1 X112.454 Y121.247 F18000
G1 F6300
G1 X101.753 Y110.546 E.59022
G1 X101.753 Y111.197 F18000
G1 F6300
G1 X111.803 Y121.247 E.5543
G1 X111.151 Y121.247 F18000
G1 F6300
G1 X101.753 Y111.849 E.51838
G1 X101.753 Y112.5 F18000
G1 F6300
G1 X110.5 Y121.247 E.48245
G1 X109.849 Y121.247 F18000
G1 F6300
G1 X101.753 Y113.151 E.44653
G1 X101.753 Y113.803 F18000
G1 F6300
G1 X109.197 Y121.247 E.4106
G1 X108.546 Y121.247 F18000
G1 F6300
G1 X101.753 Y114.454 E.37329
G1 X101.753 Y115.105 F18000
M73 P5 R10
G1 F6300
G1 X107.895 Y121.247 E.33468
G1 X107.243 Y121.247 F18000
G1 F6300
G1 X101.753 Y115.757 E.29671
G1 X101.753 Y116.408 F18000
G1 F6300
G1 X106.592 Y121.247 E.25927
G1 X105.941 Y121.247 F18000
G1 F6300
G1 X101.753 Y117.059 E.22227
G1 X101.753 Y117.711 F18000
G1 F6300
G1 X105.289 Y121.247 E.1857
G1 X104.638 Y121.247 F18000
G1 F6300
G1 X101.753 Y118.362 E.14974
G1 X101.753 Y119.013 F18000
G1 F6300
G1 X103.987 Y121.247 E.11414
G1 X103.335 Y121.247 F18000
G1 F6300
G1 X101.753 Y119.665 E.07849
G1 X101.753 Y120.316 F18000
G1 F6300
G1 X102.684 Y121.247 E.04312
; stop printing object Cube id:7596569212780310388 copy 0
M106 S255
;LAYER_CHANGE
;Z:0.4
;HEIGHT:0.2
; TIMELAPSE_TAKE_FRAME
G1 E-1.2 F2400
;_SET_FAN_SPEED_CHANGING_LAYER
SET_VELOCITY_LIMIT ACCEL=6000 ACCEL_TO_DECEL=3000
M140 S60 ; set bed temperature
; printing object Cube id:7596569212780310388 copy 0
SET_VELOCITY_LIMIT ACCEL=10000 ACCEL_TO_DECEL=5000
G1 X121.212 Y121.212 Z.4 F18000
G1 E1.2 F2400
SET_VELOCITY_LIMIT ACCEL=5000 ACCEL_TO_DECEL=2500
;TYPE:Inner wall
;WIDTH:0.449999
G1 F9000
G1 X101.788 Y121.212 E.6312
G1 X101.788 Y101.788 E.6312
G1 X121.212 Y101.788 E.6312
G1 X121.212 Y121.172 E.6299
SET_VELOCITY_LIMIT ACCEL=10000 ACCEL_TO_DECEL=5000
G1 X121.619 Y121.619 F18000
SET_VELOCITY_LIMIT ACCEL=5000 ACCEL_TO_DECEL=2500
G1 F9000
G1 X101.381 Y121.619 E.65765
G1 X101.381 Y101.381 E.65765
G1 X121.619 Y101.381 E.65765
G1 X121.619 Y121.579 E.65636
SET_VELOCITY_LIMIT ACCEL=10000 ACCEL_TO_DECEL=5000
G1 X122.026 Y122.026 F18000
SET_VELOCITY_LIMIT ACCEL=5000 ACCEL_TO_DECEL=2500
G1 F9000
G1 X100.974 Y122.026 E.68411
G1 X100.974 Y100.974 E.68411
G1 X122.026 Y100.974 E.68411
G1 X122.026 Y121.986 E.68281
G1 X122.24 Y122.094 F18000
;TYPE:Outer wall
;WIDTH:0.419999
G1 F3600
G1 X122.44 Y122.44
G1 X100.56 Y122.44 E.65859
G1 X100.56 Y100.56 E.65859
G1 X122.44 Y100.56 E.65859
G1 X122.44 Y122.4 E.65739
G1 X122.363 Y122.419
SET_VELOCITY_LIMIT ACCEL=10000 ACCEL_TO_DECEL=5000
G1 E-1.2 F2400
G1 X111.24 Y111.24 F18000
G1 E1.2 F2400
SET_VELOCITY_LIMIT ACCEL=5000 ACCEL_TO_DECEL=2500
;TYPE:Internal solid infill
;WIDTH:0.562859
G1 F10017.201
G1 X111.24 Y111.76 E.02201
G1 X111.76 Y111.76 E.02201
G1 X111.76 Y111.24 E.02201
G1 X111.28 Y111.24 E.02032
SET_VELOCITY_LIMIT ACCEL=10000 ACCEL_TO_DECEL=5000
G1 X110.792 Y110.792 F18000
SET_VELOCITY_LIMIT ACCEL=5000 ACCEL_TO_DECEL=2500
;WIDTH:0.419999
G1 F10200
G1 X110.792 Y112.208 E.0435
G1 X112.208 Y112.208 E.0435
G1 X112.208 Y110.792 E.0435
G1 X110.832 Y110.792 E.04228
SET_VELOCITY_LIMIT ACCEL=10000 ACCEL_TO_DECEL=5000
G1 X110.414 Y110.414 F18000
SET_VELOCITY_LIMIT ACCEL=5000 ACCEL_TO_DECEL=2500
G1 F10200
G1 X110.414 Y112.586 E.06666
G1 X112.586 Y112.586 E.06666
G1 X112.586 Y110.414 E.06666
G1 X110.454 Y110.414 E.06543
SET_VELOCITY_LIMIT ACCEL=10000 ACCEL_TO_DECEL=5000
G1 X110.037 Y110.037 F18000
SET_VELOCITY_LIMIT ACCEL=5000 ACCEL_TO_DECEL=2500
G1 F10200
G1 X110.037 Y112.963 E.08981
G1 X112.963 Y112.963 E.08981
G1 X112.963 Y110.037 E.08981
G1 X110.077 Y110.037 E.08858
SET_VELOCITY_LIMIT ACCEL=10000 ACCEL_TO_DECEL=5000
G1 X109.66 Y109.66 F18000
SET_VELOCITY_LIMIT ACCEL=5000 ACCEL_TO_DECEL=2500
G1 F10200
G1 X109.66 Y113.34 E.11297
G1 X113.34 Y113.34 E.11297
G1 X113.34 Y109.66 E.11297
G1 X109.7 Y109.66 E.11174
SET_VELOCITY_LIMIT ACCEL=10000 ACCEL_TO_DECEL=5000
G1 X109.283 Y109.283 F18000
M73 P6 R10
SET_VELOCITY_LIMIT ACCEL=5000 ACCEL_TO_DECEL=2500
G1 F10200
G1 X109.283 Y113.717 E.13612
G1 X113.717 Y113.717 E.13612
G1 X113.717 Y109.283 E.13612
G1 X109.323 Y109.283 E.13489
SET_VELOCITY_LIMIT ACCEL=10000 ACCEL_TO_DECEL=5000
G1 X108.906 Y108.906 F18000
SET_VELOCITY_LIMIT ACCEL=5000 ACCEL_TO_DECEL=2500
G1 F10200
G1 X108.906 Y114.094 E.15927
G1 X114.094 Y114.094 E.15927
G1 X114.094 Y108.906 E.15927
G1 X108.946 Y108.906 E.15805
SET_VELOCITY_LIMIT ACCEL=10000 ACCEL_TO_DECEL=5000
G1 X108.529 Y108.529 F18000
SET_VELOCITY_LIMIT ACCEL=5000 ACCEL_TO_DECEL=2500
G1 F10200
G1 X108.529 Y114.471 E.18243
G1 X114.471 Y114.471 E.18243
G1 X114.471 Y108.529 E.18243
G1 X108.569 Y108.529 E.1812
SET_VELOCITY_LIMIT ACCEL=10000 ACCEL_TO_DECEL=5000
G1 X108.152 Y108.152 F18000
SET_VELOCITY_LIMIT ACCEL=5000 ACCEL_TO_DECEL=2500
G1 F10200
G1 X108.152 Y114.848 E.20558
G1 X114.848 Y114.848 E.20558
G1 X114.848 Y108.152 E.20558
G1 X108.192 Y108.152 E.20435
SET_VELOCITY_LIMIT ACCEL=10000 ACCEL_TO_DECEL=5000
G1 X107.775 Y107.775 F18000
SET_VELOCITY_LIMIT ACCEL=5000 ACCEL_TO_DECEL=2500
G1 F10200
G1 X107.775 Y115.225 E.22874
G1 X115.225 Y115.225 E.22874
G1 X115.225 Y107.775 E.22874
G1 X107.815 Y107.775 E.22751
SET_VELOCITY_LIMIT ACCEL=10000 ACCEL_TO_DECEL=5000
G1 X107.398 Y107.398 F18000
SET_VELOCITY_LIMIT ACCEL=5000 ACCEL_TO_DECEL=2500
G1 F10200
G1 X107.398 Y115.602 E.25189
G1 X115.602 Y115.602 E.25189
G1 X115.602 Y107.398 E.25189
G1 X107.438 Y107.398 E.25066
SET_VELOCITY_LIMIT ACCEL=10000 ACCEL_TO_DECEL=5000
G1 X107.021 Y107.021 F18000
SET_VELOCITY_LIMIT ACCEL=5000 ACCEL_TO_DECEL=2500
G1 F10200
G1 X107.021 Y115.979 E.27505
G1 X115.979 Y115.979 E.27505
G1 X115.979 Y107.021 E.27505
G1 X107.061 Y107.021 E.27382
SET_VELOCITY_LIMIT ACCEL=10000 ACCEL_TO_DECEL=5000
G1 X106.644 Y106.644 F18000
SET_VELOCITY_LIMIT ACCEL=5000 ACCEL_TO_DECEL=2500
G1 F10200
G1 X106.644 Y116.356 E.2982
G1 X116.356 Y116.356 E.2982
G1 X116.356 Y106.644 E.2982
G1 X106.684 Y106.644 E.29697
SET_VELOCITY_LIMIT ACCEL=10000 ACCEL_TO_DECEL=5000
G1 X106.267 Y106.267 F18000
SET_VELOCITY_LIMIT ACCEL=5000 ACCEL_TO_DECEL=2500
G1 F10200
G1 X106.267 Y116.733 E.32135
G1 X116.733 Y116.733 E.32135
G1 X116.733 Y106.267 E.32135
G1 X106.307 Y106.267 E.32013
SET_VELOCITY_LIMIT ACCEL=10000 ACCEL_TO_DECEL=5000
G1 X105.889 Y105.889 F18000
SET_VELOCITY_LIMIT ACCEL=5000 ACCEL_TO_DECEL=2500
G1 F10200
G1 X105.889 Y117.111 E.34451
G1 X117.111 Y117.111 E.34451
G1 X117.111 Y105.889 E.34451
G1 X105.929 Y105.889 E.34328
SET_VELOCITY_LIMIT ACCEL=10000 ACCEL_TO_DECEL=5000
G1 X105.512 Y105.512 F18000
SET_VELOCITY_LIMIT ACCEL=5000 ACCEL_TO_DECEL=2500
G1 F10200
G1 X105.512 Y117.488 E.36766
G1 X117.488 Y117.488 E.36766
G1 X117.488 Y105.512 E.36766
G1 X105.552 Y105.512 E.36643
SET_VELOCITY_LIMIT ACCEL=10000 ACCEL_TO_DECEL=5000
G1 X105.135 Y105.135 F18000
SET_VELOCITY_LIMIT ACCEL=5000 ACCEL_TO_DECEL=2500
G1 F10200
G1 X105.135 Y117.865 E.39082
G1 X117.865 Y117.865 E.39082
G1 X117.865 Y105.135 E.39082
G1 X105.175 Y105.135 E.38959
SET_VELOCITY_LIMIT ACCEL=10000 ACCEL_TO_DECEL=5000
G1 X104.758 Y104.758 F18000
SET_VELOCITY_LIMIT ACCEL=5000 ACCEL_TO_DECEL=2500
G1 F10200
G1 X104.758 Y118.242 E.41397
G1 X118.242 Y118.242 E.41397
G1 X118.242 Y104.758 E.41397
G1 X104.798 Y104.758 E.41274
SET_VELOCITY_LIMIT ACCEL=10000 ACCEL_TO_DECEL=5000
G1 X104.381 Y104.381 F18000
SET_VELOCITY_LIMIT ACCEL=5000 ACCEL_TO_DECEL=2500
G1 F10200
G1 X104.381 Y118.619 E.43713
G1 X118.619 Y118.619 E.43713
G1 X118.619 Y104.381 E.43713
G1 X104.421 Y104.381 E.4359
SET_VELOCITY_LIMIT ACCEL=10000 ACCEL_TO_DECEL=5000
G1 X104.004 Y104.004 F18000
SET_VELOCITY_LIMIT ACCEL=5000 ACCEL_TO_DECEL=2500
G1 F10200
G1 X104.004 Y118.996 E.46028
G1 X118.996 Y118.996 E.46028
G1 X118.996 Y104.004 E.46028
G1 X104.044 Y104.004 E.45905
SET_VELOCITY_LIMIT ACCEL=10000 ACCEL_TO_DECEL=5000
G1 X103.627 Y103.627 F18000
SET_VELOCITY_LIMIT ACCEL=5000 ACCEL_TO_DECEL=2500
G1 F10200
G1 X103.627 Y119.373 E.48343
G1 X119.373 Y119.373 E.48343
G1 X119.373 Y103.627 E.48343
G1 X103.667 Y103.627 E.48221
SET_VELOCITY_LIMIT ACCEL=10000 ACCEL_TO_DECEL=5000
G1 X103.25 Y103.25 F18000
SET_VELOCITY_LIMIT ACCEL=5000 ACCEL_TO_DECEL=2500
G1 F10200
G1 X103.25 Y119.75 E.50659
G1 X119.75 Y119.75 E.50659
G1 X119.75 Y103.25 E.50659
G1 X103.29 Y103.25 E.50536
SET_VELOCITY_LIMIT ACCEL=10000 ACCEL_TO_DECEL=5000
G1 X102.873 Y102.873 F18000
SET_VELOCITY_LIMIT ACCEL=5000 ACCEL_TO_DECEL=2500
G1 F10200
G1 X102.873 Y120.127 E.52974
G1 X120.127 Y120.127 E.52974
M73 P7 R10
G1 X120.127 Y102.873 E.52974
G1 X102.913 Y102.873 E.52851
SET_VELOCITY_LIMIT ACCEL=10000 ACCEL_TO_DECEL=5000
G1 X102.496 Y102.496 F18000
SET_VELOCITY_LIMIT ACCEL=5000 ACCEL_TO_DECEL=2500
G1 F10200
G1 X102.496 Y120.504 E.5529
G1 X120.504 Y120.504 E.5529
G1 X120.504 Y102.496 E.5529
G1 X102.536 Y102.496 E.55167
SET_VELOCITY_LIMIT ACCEL=10000 ACCEL_TO_DECEL=5000
G1 X102.119 Y102.119 F18000
SET_VELOCITY_LIMIT ACCEL=5000 ACCEL_TO_DECEL=2500
G1 F10200
G1 X102.119 Y120.881 E.57605
G1 X120.881 Y120.881 E.57605
G1 X120.881 Y102.119 E.57605
G1 X102.159 Y102.119 E.57482
; stop printing object Cube id:7596569212780310388 copy 0
;LAYER_CHANGE
;Z:0.6
;HEIGHT:0.2
; TIMELAPSE_TAKE_FRAME
G1 E-1.2 F2400
;_SET_FAN_SPEED_CHANGING_LAYER
; printing object Cube id:7596569212780310388 copy 0
SET_VELOCITY_LIMIT ACCEL=10000 ACCEL_TO_DECEL=5000
G1 X121.619 Y121.619 Z.6 F18000
G1 E1.2 F2400
SET_VELOCITY_LIMIT ACCEL=5000 ACCEL_TO_DECEL=2500
;TYPE:Inner wall
;WIDTH:0.449999
G1 F9000
G1 X101.381 Y121.619 E.65765
G1 X101.381 Y101.381 E.65765
G1 X121.619 Y101.381 E.65765
G1 X121.619 Y121.579 E.65636
SET_VELOCITY_LIMIT ACCEL=10000 ACCEL_TO_DECEL=5000
G1 X122.026 Y122.026 F18000
SET_VELOCITY_LIMIT ACCEL=5000 ACCEL_TO_DECEL=2500
G1 F9000
G1 X100.974 Y122.026 E.68411
G1 X100.974 Y100.974 E.68411
G1 X122.026 Y100.974 E.68411
G1 X122.026 Y121.986 E.68281
G1 X122.24 Y122.094 F18000
;TYPE:Outer wall
;WIDTH:0.419999
G1 F3600
G1 X122.44 Y122.44
G1 X100.56 Y122.44 E.65859
G1 X100.56 Y100.56 E.65859
